X:242
T:Tinker's Daughter
R:reel
C:Vincent Broderick
S:Randal Bays
Z:transcribed by Dave Marshall
M:C|
K:D
|: A2FA DAFA | ~f3d edBd | A2FA DAFA | B2dB BAFB |
A2FA DAFA | ~f3d fdBA | faaf bfaf | e2de fdd2 :|
| fdad bdad | dfaf fede | f2df efdB | ABdf efde |
fdad bdad | dfaf fede | ~f3d efdB | AFEF D4 |
fdad bdad | dfaf fede | f2df efdB | ABdf efdB |
A2FA DAFA | ~f3d edBA | faaf bfaf | e2de fdd2 |
